src/images/icons/linkedin-icon.svg

<svg width="50" height="50" viewBox="0 0 50 50" fill="none" xmlns="http://www.w3.org/2000/svg">
<path fill-rule="evenodd" clip-rule="evenodd" d="M15.7235 12.4722C15.685 10.6008 14.4377 9.17582 12.4115 9.17582C10.3847 9.17582 9.06044 10.6008 9.06044 12.4722C9.06044 14.3031 10.3462 15.7692 12.334 15.7692H12.3725C14.4377 15.7692 15.7235 14.3031 15.7235 12.4722ZM15.7235 40.7979V19.885H9.25985V40.7979H15.7235ZM26.2686 28.8827V40.7979H19.772C19.772 40.7979 19.8654 21.7608 19.772 19.7588H26.268L26.2213 22.5558C27.1538 21.0998 28.8332 18.9608 32.6593 18.9608C37.3258 18.9608 40.8242 22.0103 40.8242 28.5639V40.7979H34.3169V28.8827C34.3169 26.015 32.7073 24.5585 30.1408 24.5585C28.1817 24.5585 27.0149 25.878 26.5022 27.1528C26.3147 27.6073 26.2686 28.245 26.2686 28.8827Z" fill="#222222"/>
</svg>

<?xml version="1.0" encoding="UTF-8"?>
<svg id="Layer_1" xmlns="http://www.w3.org/2000/svg" version="1.1" viewBox="0 0 50 50">
  <!-- Generator: Adobe Illustrator 30.2.1, SVG Export Plug-In . SVG Version: 2.1.1 Build 1)  -->
  <defs>
    <style>
      .st0 {
        fill: #e3e3e3;
        fill-rule: evenodd;
      }
    </style>
  </defs>
  <path class="st0" d="M15.72,12.47c-.04-1.87-1.29-3.3-3.31-3.3s-3.35,1.42-3.35,3.3,1.29,3.3,3.27,3.3h.04c2.07,0,3.35-1.47,3.35-3.3ZM15.72,40.8v-20.91h-6.46v20.91h6.46ZM26.27,28.88v11.92h-6.5s.09-19.04,0-21.04h6.5l-.05,2.8c.93-1.46,2.61-3.59,6.44-3.59,4.67,0,8.16,3.05,8.16,9.6v12.23h-6.51v-11.92c0-2.87-1.61-4.32-4.18-4.32-1.96,0-3.13,1.32-3.64,2.59-.19.45-.23,1.09-.23,1.73Z"/>
</svg>
